svg/color/lmwr.svg

<svg width="64" height="65" viewBox="0 0 64 65" fill="none" xmlns="http://www.w3.org/2000/svg">
<rect y="0.303711" width="64" height="64" rx="32" fill="white"/>
<rect x="0.5" y="0.803711" width="63" height="63" rx="31.5" stroke="#070B14" stroke-opacity="0.15"/>
<path d="M32.037 53.9794C43.9424 53.9794 53.5937 44.3282 53.5937 32.4228C53.5937 20.5174 43.9424 10.8662 32.037 10.8662C20.1315 10.8662 10.4802 20.5174 10.4802 32.4228C10.4802 44.3282 20.1315 53.9794 32.037 53.9794Z" fill="white"/>
<path d="M9.23146 21.2902L9.40014 21.3577L10.9857 22.0661L12.7399 22.842C14.6966 18.6927 18.0363 15.218 22.4556 13.1264L21.6797 11.3722L20.5665 8.80833C19.3183 6.31195 17.058 7.15532 16.2484 7.56014C12.6724 9.78664 9.70375 12.7216 7.47723 16.1288C7.4435 16.1625 7.4435 16.1963 7.4435 16.2637C6.02662 19.5698 8.52302 20.9529 9.23146 21.2902Z" fill="#00934B"/>
<path d="M12.7734 22.8083L15.6072 24.0565L18.0699 25.136L20.0265 26.0131C21.2072 23.6179 23.1639 21.5938 25.694 20.3457L24.8169 18.389L23.7374 15.9264L22.4892 13.0927C18.0699 15.1842 14.7301 18.6926 12.7734 22.8083Z" fill="#22D511"/>
<path d="M19.9928 26.0131L24.0747 27.801L27.8531 29.454C28.3591 29.4203 28.7977 29.083 29.0001 28.6107C29.0676 28.442 29.1013 28.3071 29.1013 28.1384L27.4483 24.3938L25.6603 20.3119C23.1302 21.5938 21.1735 23.6179 19.9928 26.0131Z" fill="#BEF000"/>
<path d="M60.6771 26.2492C59.3615 22.977 56.6627 23.7191 55.9205 24.0227L55.7181 24.0902L54.0651 24.7312L52.2771 25.4396C53.9301 30.0275 53.8289 34.8854 52.2771 39.2034L54.0651 39.9119L56.359 40.789C59.0241 41.9022 60.1374 40.0131 60.5422 39.001C61.5543 34.8854 61.6217 30.5336 60.6771 26.2492Z" fill="#00934B"/>
<path d="M52.3117 25.4396L49.4442 26.5528L46.9141 27.5311L44.9237 28.307C45.8346 31.0058 45.8008 33.8058 44.9237 36.3359L46.8803 37.1118L49.4105 38.0902L52.278 39.2034C53.8635 34.8853 53.9647 30.0613 52.3117 25.4396Z" fill="#22D511"/>
<path d="M44.9566 28.3071L40.8071 29.9264L36.9613 31.4445C36.624 31.8156 36.5228 32.3553 36.7252 32.8613C36.7927 32.9963 36.8601 33.1312 36.9613 33.2324L40.8071 34.7168L44.9566 36.336C45.7999 33.8059 45.8674 31.0059 44.9566 28.3071Z" fill="#BEF000"/>
<path d="M9.90615 39.9119L11.6941 39.2035C10.0411 34.6155 10.1423 29.7577 11.6941 25.4396L9.90615 24.7312L7.57842 23.8204C4.87961 22.7408 3.80009 24.7312 3.429 25.7095C2.45068 29.7577 2.38321 34.042 3.29406 38.2589C3.29406 38.2589 3.29406 38.2589 3.29406 38.2926C4.60973 41.6661 7.34228 40.8902 8.08445 40.6203L9.90615 39.9119Z" fill="#00934B"/>
<path d="M11.6941 39.2035L14.5616 38.0902L17.058 37.1119L19.0484 36.336C18.1375 33.6372 18.1713 30.8372 19.0484 28.3071L17.058 27.5312L14.5616 26.5866L11.6941 25.4734C10.1423 29.7915 10.0411 34.6155 11.6941 39.2035Z" fill="#22D511"/>
<path d="M19.0816 36.3359L23.231 34.7166L27.0431 33.2323C27.3804 32.8612 27.4816 32.3215 27.2792 31.8154C27.2117 31.6468 27.1105 31.5118 27.0093 31.4106L23.1972 29.9263L19.0478 28.307C18.2044 30.8709 18.1707 33.6709 19.0816 36.3359Z" fill="#BEF000"/>
<path d="M12.8069 41.8348L11.0527 42.6107L9.23095 43.4204C9.23095 43.4204 6.02612 45.1409 7.51046 48.4469V48.4806C9.83819 52.0902 12.9081 55.0252 16.4165 57.1842C17.3274 57.6228 19.6214 58.3649 20.7684 55.5649L21.7467 53.3384L22.5226 51.5842C18.4069 49.5939 14.8985 46.2541 12.8069 41.8348Z" fill="#00934B"/>
<path d="M24.8846 46.254L25.7279 44.3312C23.3327 43.1504 21.3086 41.1938 20.0604 38.6637L18.1038 39.5071L15.6411 40.5866L12.8074 41.8348C14.899 46.254 18.4074 49.5938 22.5568 51.5504L23.805 48.7167L24.8846 46.254Z" fill="#22D511"/>
<path d="M25.728 44.2974L27.5159 40.2155L29.169 36.4709C29.1352 35.9649 28.8316 35.4926 28.3256 35.2902C28.1906 35.2227 28.022 35.189 27.8533 35.189L24.1087 36.842L20.0267 38.6299C21.3087 41.1938 23.3328 43.1167 25.728 44.2974Z" fill="#BEF000"/>
<path d="M51.2315 22.842L52.9857 22.0661L54.9424 21.189L54.7737 21.2227C55.4821 20.8854 57.9448 19.536 56.5617 16.2974C54.2002 12.5866 51.0291 9.58419 47.3857 7.39142C44.8218 6.07576 43.2363 9.07816 43.2363 9.07816L42.258 11.3384L41.4821 13.0926C45.6315 15.0492 49.1399 18.389 51.2315 22.842Z" fill="#00934B"/>
<path d="M39.1543 18.3553L38.3109 20.3119C40.7061 21.4926 42.7302 23.4493 44.0122 26.0131L45.9688 25.1697L48.4315 24.0902L51.2315 22.842C49.1399 18.4228 45.6314 15.0493 41.482 13.0927L40.2338 15.9264L39.1543 18.3553Z" fill="#22D511"/>
<path d="M38.311 20.3119L36.523 24.3938L34.87 28.2059C34.9037 28.7119 35.2073 29.1504 35.7134 29.3528C35.8483 29.4203 36.017 29.454 36.1857 29.454L39.964 27.801L44.046 26.0131C42.7303 23.4492 40.7062 21.5263 38.311 20.3119Z" fill="#BEF000"/>
<path d="M39.593 54.3841L38.8846 52.5962C34.2628 54.2492 29.4387 54.148 25.1206 52.5962L24.4122 54.3841L23.2652 57.3528C23.2652 57.3528 22.6917 59.6805 26.0652 60.9624C26.1327 60.9962 26.2001 61.0299 26.2676 61.0299C30.1472 61.8395 34.2291 61.8395 38.2436 60.9287C38.8171 60.76 41.6171 59.8829 40.6051 56.948L39.593 54.3841Z" fill="#00934B"/>
<path d="M38.9182 52.5961L37.805 49.7287L36.8267 47.1986L36.0507 45.2419C33.3519 46.1528 30.5519 46.1191 28.0218 45.2419L27.2459 47.1986L26.2676 49.7287L25.1543 52.5961C29.4724 54.148 34.2965 54.2492 38.9182 52.5961Z" fill="#22D511"/>
<path d="M36.017 45.242L34.3977 41.0926L32.9134 37.2805C32.5423 36.9432 31.9688 36.842 31.4628 37.0444C31.3278 37.1119 31.1929 37.1793 31.0917 37.2805L29.6073 41.0926L27.988 45.242C30.5519 46.0854 33.3182 46.1528 36.017 45.242Z" fill="#BEF000"/>
<path d="M24.3786 10.2252L25.0871 12.0131C29.7088 10.3601 34.5329 10.4613 38.851 11.9794L39.5594 10.1914L40.2679 8.36973C40.5378 7.62757 41.3137 4.86131 37.9402 3.57938C37.9064 3.57938 37.9064 3.54565 37.8727 3.54565C33.8582 2.73601 29.6413 2.73601 25.4919 3.71432C24.5473 4.01793 22.3208 5.09745 23.5015 7.96492L24.3786 10.2252Z" fill="#00934B"/>
<path d="M25.0867 12.0131L26.1999 14.8806L27.1783 17.377L27.9542 19.3673C30.653 18.4565 33.453 18.4902 35.9831 19.3673L36.759 17.377L37.7373 14.8806L38.8506 12.0131C34.5325 10.4613 29.7084 10.3601 25.0867 12.0131Z" fill="#22D511"/>
<path d="M27.9541 19.3673L29.5734 23.5167L31.0915 27.3962C31.4626 27.6998 32.0023 27.801 32.4746 27.5986C32.6433 27.5312 32.7782 27.4299 32.8794 27.3287L34.3638 23.483L35.9831 19.3336C33.4529 18.5239 30.6529 18.4565 27.9541 19.3673Z" fill="#BEF000"/>
<path d="M54.7737 43.3528L54.5713 43.2854L52.9857 42.5769L51.2315 41.801C49.2749 45.9504 45.9351 49.4251 41.4821 51.5504L42.258 53.3046L43.2363 55.5311C44.5182 58.6347 47.1496 57.4203 47.8243 57.0155C51.3665 54.789 54.2677 51.8878 56.4605 48.5143C56.4942 48.4805 56.4942 48.4468 56.5279 48.3793C57.9785 45.0733 55.4821 43.6902 54.7737 43.3528Z" fill="#00934B"/>
<path d="M51.2315 41.801L48.3977 40.5528L45.9013 39.4733L43.9784 38.6299C42.7977 41.0251 40.841 43.0154 38.3109 44.2636L39.1543 46.1865L40.2338 48.6829L41.482 51.5166C45.9013 49.4588 49.2748 45.9504 51.2315 41.801Z" fill="#22D511"/>
<path d="M43.9783 38.6637L39.8964 36.8757L36.1855 35.2565C36.0506 35.2565 35.8819 35.2902 35.7469 35.3577C35.4096 35.4926 35.1397 35.7625 35.0048 36.0998C34.9373 36.2348 34.9036 36.3697 34.9036 36.5384L36.5228 40.2492L38.3108 44.3312C40.8409 43.0492 42.7976 41.0589 43.9783 38.6637Z" fill="#BEF000"/>
</svg>

<svg xmlns="http://www.w3.org/2000/svg" width="64" height="65" fill="none" viewBox="0 0 64 65"><rect width="64" height="64" y=".304" fill="#fff" rx="32"/><rect width="63" height="63" x=".5" y=".804" stroke="#070B14" stroke-opacity=".15" rx="31.5"/><path fill="#fff" d="M32.037 53.98c11.905 0 21.557-9.652 21.557-21.557 0-11.906-9.652-21.557-21.557-21.557S10.48 20.517 10.48 32.423s9.651 21.556 21.557 21.556"/><path fill="#00934B" d="m9.231 21.29.17.068 1.585.708 1.754.776a20.28 20.28 0 0 1 9.716-9.716l-.776-1.754-1.113-2.564c-1.249-2.496-3.509-1.653-4.319-1.248a28.4 28.4 0 0 0-8.77 8.569c-.034.034-.034.067-.034.135-1.417 3.306 1.079 4.689 1.787 5.026"/><path fill="#22D511" d="m12.773 22.808 2.834 1.249 2.463 1.079 1.956.877a12.46 12.46 0 0 1 5.668-5.667l-.877-1.957-1.08-2.463-1.248-2.833a20.43 20.43 0 0 0-9.716 9.715"/><path fill="#BEF000" d="m19.993 26.013 4.082 1.788 3.778 1.653c.506-.034.945-.371 1.147-.843a1.2 1.2 0 0 0 .101-.473l-1.653-3.744-1.788-4.082a12.7 12.7 0 0 0-5.667 5.701"/><path fill="#00934B" d="M60.677 26.25c-1.315-3.273-4.014-2.53-4.757-2.227l-.202.067-1.653.641-1.788.709a20.3 20.3 0 0 1 0 13.763l1.788.709 2.294.877c2.665 1.113 3.778-.776 4.183-1.788a28.05 28.05 0 0 0 .135-12.752"/><path fill="#22D511" d="m52.312 25.44-2.868 1.113-2.53.978-1.99.776c.91 2.699.877 5.499 0 8.029l1.956.776 2.53.978 2.868 1.113c1.586-4.318 1.687-9.142.034-13.763"/><path fill="#BEF000" d="m44.957 28.307-4.15 1.62-3.846 1.518c-.337.37-.438.91-.236 1.416.068.135.135.27.236.371l3.846 1.485 4.15 1.619c.843-2.53.91-5.33 0-8.029"/><path fill="#00934B" d="m9.906 39.912 1.788-.709a20.3 20.3 0 0 1 0-13.763l-1.788-.709-2.328-.91c-2.698-1.08-3.778.91-4.149 1.888a28.1 28.1 0 0 0-.135 12.55v.034c1.316 3.373 4.048 2.597 4.79 2.327z"/><path fill="#22D511" d="m11.694 39.204 2.868-1.114 2.496-.978 1.99-.776c-.91-2.699-.877-5.499 0-8.029l-1.99-.776-2.496-.944-2.868-1.114a20.2 20.2 0 0 0 0 13.73"/><path fill="#BEF000" d="m19.082 36.336 4.149-1.62 3.812-1.484c.337-.37.439-.91.236-1.417a1.2 1.2 0 0 0-.27-.404l-3.812-1.485-4.15-1.619a12.58 12.58 0 0 0 .035 8.029"/><path fill="#00934B" d="m12.807 41.835-1.754.776-1.822.81s-3.205 1.72-1.72 5.026v.034a28.1 28.1 0 0 0 8.906 8.703c.91.439 3.204 1.18 4.351-1.62l.979-2.226.776-1.754c-4.116-1.99-7.624-5.33-9.716-9.75"/><path fill="#22D511" d="m24.885 46.254.843-1.923a12.46 12.46 0 0 1-5.668-5.667l-1.956.843-2.463 1.08-2.834 1.248a20.35 20.35 0 0 0 9.75 9.715l1.248-2.833z"/><path fill="#BEF000" d="m25.728 44.297 1.788-4.081 1.653-3.745a1.36 1.36 0 0 0-.843-1.18 1.1 1.1 0 0 0-.473-.102l-3.744 1.653-4.082 1.788a12.53 12.53 0 0 0 5.701 5.667"/><path fill="#00934B" d="m51.232 22.842 1.754-.776 1.956-.877-.168.034c.708-.338 3.17-1.687 1.788-4.926-2.362-3.71-5.533-6.713-9.176-8.906-2.564-1.315-4.15 1.687-4.15 1.687l-.978 2.26-.776 1.755a20.28 20.28 0 0 1 9.75 9.749"/><path fill="#22D511" d="m39.154 18.355-.843 1.957a12.6 12.6 0 0 1 5.701 5.701l1.957-.843 2.462-1.08 2.8-1.248a20.42 20.42 0 0 0-9.749-9.75l-1.248 2.834z"/><path fill="#BEF000" d="m38.311 20.312-1.788 4.082-1.653 3.812c.034.506.337.944.843 1.147.135.067.304.101.473.101l3.778-1.653 4.082-1.788a13 13 0 0 0-5.735-5.701"/><path fill="#00934B" d="m39.593 54.384-.708-1.788a20.3 20.3 0 0 1-13.764 0l-.709 1.788-1.147 2.969s-.573 2.328 2.8 3.61a.5.5 0 0 0 .203.067c3.88.81 7.961.81 11.976-.101.573-.169 3.373-1.046 2.361-3.981z"/><path fill="#22D511" d="m38.918 52.596-1.113-2.867-.978-2.53-.776-1.957c-2.7.91-5.5.877-8.03 0l-.775 1.957-.978 2.53-1.114 2.867a20.3 20.3 0 0 0 13.764 0"/><path fill="#BEF000" d="m36.017 45.242-1.62-4.15-1.484-3.811c-.37-.338-.944-.439-1.45-.237-.135.068-.27.135-.371.237l-1.485 3.812-1.619 4.149c2.564.843 5.33.91 8.029 0"/><path fill="#00934B" d="m24.379 10.225.708 1.788a20.5 20.5 0 0 1 13.764-.034l.708-1.788.709-1.821c.27-.742 1.046-3.509-2.328-4.79-.034 0-.034-.034-.067-.034-4.015-.81-8.232-.81-12.381.168-.945.304-3.171 1.383-1.99 4.25z"/><path fill="#22D511" d="m25.087 12.013 1.113 2.868.978 2.496.776 1.99c2.699-.91 5.499-.877 8.03 0l.775-1.99.978-2.496 1.114-2.868a20.3 20.3 0 0 0-13.764 0"/><path fill="#BEF000" d="m27.954 19.367 1.62 4.15 1.517 3.88c.372.303.911.404 1.384.202a1.2 1.2 0 0 0 .404-.27l1.485-3.846 1.62-4.15c-2.531-.81-5.331-.876-8.03.034"/><path fill="#00934B" d="m54.774 43.353-.203-.068-1.585-.708-1.755-.776c-1.956 4.15-5.296 7.624-9.749 9.75l.776 1.754.978 2.226c1.282 3.104 3.914 1.89 4.588 1.485a28.1 28.1 0 0 0 8.637-8.502c.033-.034.033-.067.067-.135 1.45-3.306-1.046-4.689-1.754-5.026"/><path fill="#22D511" d="m51.232 41.801-2.834-1.248-2.497-1.08-1.923-.843c-1.18 2.395-3.137 4.385-5.667 5.634l.843 1.922 1.08 2.497 1.248 2.834a20.2 20.2 0 0 0 9.75-9.716"/><path fill="#BEF000" d="m43.978 38.664-4.082-1.788-3.71-1.62c-.135 0-.304.034-.44.102a1.34 1.34 0 0 0-.741.742.9.9 0 0 0-.101.438l1.619 3.711 1.788 4.082c2.53-1.282 4.487-3.272 5.667-5.667"/></svg>
